close-box.svg

<svg fill="currentColor" viewBox="0 0 24 24"><path d="M19 3H5a2 2 0 0 0-2 2v14a2 2 0 0 0 2 2h14a2 2 0 0 0 2-2V5a2 2 0 0 0-2-2m-3.4 14L12 13.4 8.4 17 7 15.6l3.6-3.6L7 8.4 8.4 7l3.6 3.6L15.6 7 17 8.4 13.4 12l3.6 3.6z"/></svg>

<svg  viewBox="0 0 24 24" fill="currentColor"><path  d="M19,3H16.3H7.7H5A2,2 0 0,0 3,5V7.7V16.4V19A2,2 0 0,0 5,21H7.7H16.4H19A2,2 0 0,0 21,19V16.3V7.7V5A2,2 0 0,0 19,3M15.6,17L12,13.4L8.4,17L7,15.6L10.6,12L7,8.4L8.4,7L12,10.6L15.6,7L17,8.4L13.4,12L17,15.6L15.6,17Z"/></svg>
